Simply-White-Circles/scalable/apps/mc.svg

<svg xmlns="http://www.w3.org/2000/svg" width="48" height="48" viewBox="0 0 12.7 12.7"><path d="M6.344.072a6.29 6.29 0 0 0-6.29 6.29 6.29 6.29 0 0 0 6.29 6.289 6.29 6.29 0 0 0 6.29-6.29 6.29 6.29 0 0 0-6.29-6.29zm-.253.946v10.793A5.407 5.407 0 0 1 .92 6.416a5.407 5.407 0 0 1 5.17-5.398zm.59.009a5.407 5.407 0 0 1 5.052 5.39 5.407 5.407 0 0 1-5.052 5.394V1.027zM3.157 2.646v.468h2.245v-.468H3.157zm4.177 0v.468h2.244v-.468H7.334zM2.46 4.233v.468h2.942v-.468H2.46zm4.874 0v.468h2.941v-.468H7.334zm-5.49 1.588v.468h3.558V5.82H1.843zm5.49 0v.468h3.558V5.82H7.334z" fill="#e6e6e6"/></svg>

<?xml version="1.0" encoding="UTF-8" standalone="no"?>
<svg
   xmlns:dc="http://purl.org/dc/elements/1.1/"
   xmlns:cc="http://creativecommons.org/ns#"
   xmlns:rdf="http://www.w3.org/1999/02/22-rdf-syntax-ns#"
   xmlns:svg="http://www.w3.org/2000/svg"
   xmlns="http://www.w3.org/2000/svg"
   xmlns:sodipodi="http://sodipodi.sourceforge.net/DTD/sodipodi-0.dtd"
   xmlns:inkscape="http://www.inkscape.org/namespaces/inkscape"
   width="48"
   height="48"
   viewBox="0 0 12.7 12.7"
   version="1.1"
   id="svg4"
   sodipodi:docname="mc.svg"
   inkscape:version="0.92.4 (5da689c313, 2019-01-14)">
  <metadata
     id="metadata10">
    <rdf:RDF>
      <cc:Work
         rdf:about="">
        <dc:format>image/svg+xml</dc:format>
        <dc:type
           rdf:resource="http://purl.org/dc/dcmitype/StillImage" />
        <dc:title></dc:title>
      </cc:Work>
    </rdf:RDF>
  </metadata>
  <defs
     id="defs8" />
  <sodipodi:namedview
     pagecolor="#ffffff"
     bordercolor="#666666"
     borderopacity="1"
     objecttolerance="10"
     gridtolerance="10"
     guidetolerance="10"
     inkscape:pageopacity="0"
     inkscape:pageshadow="2"
     inkscape:window-width="1087"
     inkscape:window-height="480"
     id="namedview6"
     showgrid="false"
     inkscape:zoom="4.9166667"
     inkscape:cx="2.1355932"
     inkscape:cy="24"
     inkscape:window-x="0"
     inkscape:window-y="25"
     inkscape:window-maximized="0"
     inkscape:current-layer="svg4" />
  <path
     d="m 6.344,0.072 a 6.29,6.29 0 0 0 -6.29,6.29 6.29,6.29 0 0 0 6.29,6.289 6.29,6.29 0 0 0 6.29,-6.29 6.29,6.29 0 0 0 -6.29,-6.29 z M 6.091,1.018 V 11.811 A 5.407,5.407 0 0 1 0.92,6.416 5.407,5.407 0 0 1 6.09,1.018 Z m 0.59,0.009 a 5.407,5.407 0 0 1 5.052,5.39 5.407,5.407 0 0 1 -5.052,5.394 z M 3.157,2.646 V 3.114 H 5.402 V 2.646 Z m 4.177,0 V 3.114 H 9.578 V 2.646 Z M 2.46,4.233 V 4.701 H 5.402 V 4.233 Z m 4.874,0 v 0.468 h 2.941 V 4.233 Z M 1.844,5.821 V 6.289 H 5.402 V 5.82 H 1.843 Z m 5.49,0 v 0.468 h 3.558 V 5.82 H 7.334 Z"
     id="path2"
     inkscape:connector-curvature="0"
     style="fill:#e6e6e6" />
</svg>
